icons/black/retrica.svg

<?xml version="1.0" encoding="UTF-8"?><svg id="a" xmlns="http://www.w3.org/2000/svg" viewBox="0 0 48 48"><defs><style>.b{fill:none;stroke:#000;stroke-linecap:round;stroke-linejoin:round;}</style></defs><path class="b" d="M24,14.8374c5.0599-.0004,9.1621,4.1011,9.1626,9.161v.0016c.0004,5.0599-4.1011,9.1621-9.161,9.1626h-.0016c-5.0599.0004-9.1621-4.1011-9.1626-9.161v-.0016c-.0004-5.0599,4.1011-9.1621,9.161-9.1626.0005,0,.001,0,.0016,0ZM39.4763,39.4759h-6.3138v-6.3138h6.3138v6.3138ZM36.3194,39.4759v-6.3138M33.1626,36.3191h6.3138"/><path class="b" d="M38.5,5.5H9.5c-2.2091,0-4,1.7909-4,4v29c0,2.2091,1.7909,4,4,4h29c2.2091,0,4-1.7909,4-4V9.5c0-2.2091-1.7909-4-4-4Z"/></svg>

<svg id="Layer_2" data-name="Layer 2" xmlns="http://www.w3.org/2000/svg" viewBox="0 0 48 48"><defs><style>.cls-1{fill:none;stroke:#000;stroke-linecap:round;stroke-linejoin:round;}</style></defs><path class="cls-1" d="M7.5,5.5a2,2,0,0,0-2,2v33a2,2,0,0,0,2,2h33a2,2,0,0,0,2-2V7.5a2,2,0,0,0-2-2ZM24,14.84A9.16,9.16,0,0,1,33.16,24h0A9.16,9.16,0,0,1,24,33.16h0A9.16,9.16,0,0,1,14.84,24h0A9.16,9.16,0,0,1,24,14.84ZM39.48,39.48H33.16V33.16h6.32Zm-3.16,0V33.16m-3.16,3.16h6.32"/></svg>
